<?xml version="1.0" encoding="UTF-8"?>
<map version="1.10" tiledversion="1.12.2" orientation="orthogonal" renderorder="right-down" width="32" height="32" tilewidth="8" tileheight="8" infinite="0" nextlayerid="2" nextobjectid="1">
 <tileset firstgid="1" source="tiles.tsx"/>
 <layer id="1" name="Calque de Tuiles 1" width="32" height="32">
  <data encoding="csv">
2,3,3,3,3,3,3,3,3,3,3,3,3,3,3,3,3,3,3,3,3,3,3,3,3,3,3,3,3,2147483650,0,0,
4,6,6,6,6,6,6,6,6,6,6,6,6,6,6,6,6,6,6,6,6,6,6,6,6,6,6,6,6,2147483652,0,0,
4,6,6,6,6,6,6,6,6,6,6,6,6,6,6,6,6,6,6,6,6,6,6,6,6,6,6,6,6,2147483652,0,0,
11,38,38,38,38,39,40,41,42,38,38,38,38,38,38,38,38,38,38,38,38,38,38,38,38,38,38,38,38,2147483659,0,0,
7,43,43,43,44,45,46,47,48,49,50,51,43,43,43,43,52,53,54,43,43,55,56,57,58,59,60,43,43,2147483655,0,0,
7,43,43,61,62,63,64,65,66,67,68,69,70,71,72,73,74,75,76,77,78,79,80,81,82,83,84,43,43,2147483655,0,0,
7,43,43,85,86,87,88,89,90,91,92,93,94,95,96,97,98,99,100,101,102,103,104,105,106,107,108,43,43,2147483655,0,0,
7,43,43,109,110,111,112,113,114,43,43,43,43,43,43,43,43,43,43,43,43,43,43,43,43,43,43,43,43,2147483655,0,0,
7,43,43,115,116,117,118,119,120,43,43,43,43,43,43,43,43,43,43,43,43,43,43,43,43,43,43,43,43,2147483655,0,0,
7,43,43,43,43,43,43,43,43,43,43,43,43,43,43,43,43,43,43,43,43,43,43,43,43,43,43,43,43,2147483655,0,0,
7,43,43,43,43,43,43,43,43,43,43,43,43,43,43,43,43,43,43,43,43,43,43,43,43,43,43,43,43,2147483655,0,0,
7,43,43,43,43,43,43,43,43,43,43,43,43,43,121,122,123,43,43,43,43,43,43,124,125,43,43,43,43,2147483655,0,0,
7,43,43,128,129,130,131,132,43,43,43,43,43,43,133,134,135,43,43,43,43,43,136,137,138,139,140,43,43,2147483655,0,0,
7,43,43,144,145,146,147,148,43,43,43,43,43,43,149,150,151,43,43,43,43,43,152,153,154,155,156,43,43,2147483655,0,0,
7,43,43,161,162,163,164,165,43,43,43,43,43,43,166,167,168,43,43,43,43,43,169,170,171,172,173,43,43,2147483655,0,0,
7,43,43,43,43,43,178,179,180,181,182,43,43,43,183,184,185,43,43,43,43,43,43,186,187,188,189,43,43,2147483655,0,0,
7,43,43,43,43,43,43,43,43,43,43,43,43,43,43,43,43,43,43,43,43,43,43,43,43,43,43,43,43,2147483655,0,0,
33,23,23,23,23,23,23,23,23,23,23,23,23,23,23,23,23,23,23,23,23,23,23,23,23,23,23,23,23,2147483681,0,0,
33,23,23,23,23,23,23,23,23,23,23,23,23,23,23,23,23,23,23,23,23,23,23,23,23,23,23,23,23,2147483681,0,0,
199,200,200,200,200,200,200,200,200,200,200,200,200,200,200,200,200,200,200,200,200,200,200,200,200,200,200,200,200,2147483847,0,0,
0,0,0,0,0,0,0,0,0,0,0,0,0,0,0,0,0,0,0,0,0,0,0,0,0,0,0,0,0,0,0,0,
0,0,0,0,0,0,0,0,0,0,0,0,0,0,0,0,0,0,0,0,0,0,0,0,0,0,0,0,0,0,0,0,
0,0,0,0,0,0,0,0,0,0,0,0,0,0,0,0,0,0,0,0,0,0,0,0,0,0,0,0,0,0,0,0,
0,0,0,0,0,0,0,0,0,0,0,0,0,0,0,0,0,0,0,0,0,0,0,0,0,0,0,0,0,0,0,0,
0,0,0,0,0,0,0,0,0,0,0,0,0,0,0,0,0,0,0,0,0,0,0,0,0,0,0,0,0,0,0,0,
0,0,0,0,0,0,0,0,0,0,0,0,0,0,0,0,0,0,0,0,0,0,0,0,0,0,0,0,0,0,0,0,
0,0,0,0,0,0,0,0,0,0,0,0,0,0,0,0,0,0,0,0,0,0,0,0,0,0,0,0,0,0,0,0,
0,0,0,0,0,0,0,0,0,0,0,0,0,0,0,0,0,0,0,0,0,0,0,0,0,0,0,0,0,0,0,0,
0,0,0,0,0,0,0,0,0,0,0,0,0,0,0,0,0,0,0,0,0,0,0,0,0,0,0,0,0,0,0,0,
0,0,0,0,0,0,0,0,0,0,0,0,0,0,0,0,0,0,0,0,0,0,0,0,0,0,0,0,0,0,0,0,
0,0,0,0,0,0,0,0,0,0,0,0,0,0,0,0,0,0,0,0,0,0,0,0,0,0,0,0,0,0,0,0,
0,0,0,0,0,0,0,0,0,0,0,0,0,0,0,0,0,0,0,0,0,0,0,0,0,0,0,0,0,0,0,0
</data>
 </layer>
</map>
