<?xml version="1.0" encoding="UTF-8"?>
<map version="1.10" tiledversion="1.12.2" orientation="orthogonal" renderorder="right-down" width="32" height="32" tilewidth="8" tileheight="8" infinite="0" nextlayerid="2" nextobjectid="1">
 <tileset firstgid="1" source="tiles.tsx"/>
 <layer id="1" name="Calque de Tuiles 1" width="32" height="32">
  <data encoding="csv">
0,0,0,0,0,0,0,0,0,0,0,0,0,0,0,0,0,0,0,0,0,0,0,0,0,0,0,0,0,0,0,0,
0,0,0,0,0,0,0,0,0,0,0,0,0,0,0,0,0,0,0,0,0,0,0,0,0,0,0,0,0,0,0,0,
0,0,0,0,0,0,0,0,0,0,0,0,0,0,0,0,0,0,0,0,0,0,0,0,0,0,0,0,0,0,0,0,
0,0,0,0,0,0,0,0,0,0,0,0,0,0,0,0,0,0,0,0,0,0,0,0,0,0,0,0,0,0,0,0,
0,0,0,0,0,0,0,0,0,0,0,0,0,0,0,0,0,0,0,0,0,0,0,0,0,0,0,0,0,0,0,0,
0,0,0,0,0,0,0,0,0,0,0,0,0,0,0,0,0,0,0,0,0,0,0,0,0,0,0,0,0,0,0,0,
0,0,0,0,0,0,0,0,0,0,0,0,0,0,0,0,0,0,0,0,0,0,0,0,0,0,0,0,0,0,0,0,
0,0,0,0,0,0,0,0,0,0,0,0,0,0,0,0,0,0,0,0,0,0,0,0,0,0,0,0,0,0,0,0,
0,0,0,0,0,0,0,0,0,0,0,0,0,0,0,0,0,0,0,0,0,0,0,0,0,0,0,0,0,0,0,0,
0,0,0,0,0,0,0,0,0,0,0,0,0,0,0,0,0,0,0,0,0,0,0,0,0,0,0,0,0,0,0,0,
0,0,0,0,0,0,0,0,0,0,0,0,0,0,0,0,0,0,0,0,0,0,0,0,0,0,0,0,0,0,0,0,
0,0,0,0,0,0,0,216,224,224,224,224,224,224,224,224,224,224,224,224,224,224,224,2147483864,0,0,0,0,0,0,0,0,
0,0,0,0,0,0,0,223,6,6,6,6,6,6,6,6,6,6,6,6,6,6,6,2147483871,0,0,0,0,0,0,0,0,
0,0,0,0,0,0,0,223,6,6,6,6,6,6,6,6,6,6,6,6,6,6,6,2147483871,0,0,0,0,0,0,0,0,
0,0,0,0,0,0,0,223,6,6,6,6,6,6,6,6,6,6,6,6,6,6,6,2147483871,0,0,0,0,0,0,0,0,
0,0,0,0,0,0,0,203,23,23,23,23,23,23,23,23,23,23,23,23,23,23,23,2147483851,0,0,0,0,0,0,0,0,
0,0,0,0,0,0,0,203,23,23,23,23,23,23,23,23,23,23,23,23,23,23,23,2147483851,0,0,0,0,0,0,0,0,
0,0,0,0,0,0,0,203,23,23,23,23,23,23,23,23,23,23,23,23,23,23,23,2147483851,0,0,0,0,0,0,0,0,
0,0,0,0,0,0,0,203,23,23,23,23,23,23,23,23,23,23,23,23,23,23,23,2147483851,0,0,0,0,0,0,0,0,
0,0,0,0,0,0,0,203,23,23,23,23,23,23,23,23,23,23,23,23,23,23,23,2147483851,0,0,0,0,0,0,0,0,
0,0,0,0,0,0,0,1073742026,1073742025,1073742025,1073742025,1073742025,1073742025,1073742025,1073742025,1073742025,1073742025,1073742025,1073742025,1073742025,1073742025,1073742025,1073742025,3221225674,0,0,0,0,0,0,0,0,
0,0,0,0,0,0,0,0,0,0,0,0,0,0,0,0,0,0,0,0,0,0,0,0,0,0,0,0,0,0,0,0,
0,0,0,0,0,0,0,0,0,0,0,0,0,0,0,0,0,0,0,0,0,0,0,0,0,0,0,0,0,0,0,0,
0,0,0,0,0,0,0,0,0,0,0,0,0,0,0,0,0,0,0,0,0,0,0,0,0,0,0,0,0,0,0,0,
0,0,0,0,0,0,0,0,0,0,0,0,0,0,0,0,0,0,0,0,0,0,0,0,0,0,0,0,0,0,0,0,
0,0,0,0,0,0,0,0,0,0,0,0,0,0,0,0,0,0,0,0,0,0,0,0,0,0,0,0,0,0,0,0,
0,0,0,0,0,0,0,0,0,0,0,0,0,0,0,0,0,0,0,0,0,0,0,0,0,0,0,0,0,0,0,0,
0,0,0,0,0,0,0,0,0,0,0,0,0,0,0,0,0,0,0,0,0,0,0,0,0,0,0,0,0,0,0,0,
0,0,0,0,0,0,0,0,0,0,0,0,0,0,0,0,0,0,0,0,0,0,0,0,0,0,0,0,0,0,0,0,
0,0,0,0,0,0,0,0,0,0,0,0,0,0,0,0,0,0,0,0,0,0,0,0,0,0,0,0,0,0,0,0,
0,0,0,0,0,0,0,0,0,0,0,0,0,0,0,0,0,0,0,0,0,0,0,0,0,0,0,0,0,0,0,0,
0,0,0,0,0,0,0,0,0,0,0,0,0,0,0,0,0,0,0,0,0,0,0,0,0,0,0,0,0,0,0,0
</data>
 </layer>
</map>
