<?xml version="1.0" encoding="UTF-8"?>
<map version="1.10" tiledversion="1.12.2" orientation="orthogonal" renderorder="right-down" width="32" height="32" tilewidth="8" tileheight="8" infinite="0" nextlayerid="2" nextobjectid="1">
 <tileset firstgid="1" source="tiles.tsx"/>
 <layer id="1" name="Calque de Tuiles 1" width="32" height="32">
  <data encoding="csv">
2,3,3,3,3,3,3,3,3,3,3,3,3,3,3,3,3,3,3,3,3,3,3,3,3,3,3,3,3,2147483650,0,0,
4,6,6,6,6,6,6,6,6,6,6,6,6,6,6,6,6,6,6,6,6,6,6,6,6,6,6,6,6,2147483652,0,0,
4,6,6,6,6,6,6,6,6,6,6,6,6,6,6,6,6,6,6,6,6,6,6,6,6,6,6,6,6,2147483652,0,0,
214,23,23,23,23,23,23,23,23,23,23,23,23,23,23,23,23,23,23,23,23,23,23,23,23,23,23,23,23,2147483862,0,0,
238,23,23,23,23,23,23,23,23,23,23,23,23,23,23,23,23,23,23,23,23,23,23,23,23,23,23,23,23,2147483886,0,0,
238,23,23,23,23,23,23,23,23,23,23,23,23,23,23,23,23,23,23,23,23,23,23,23,23,23,23,23,23,2147483886,0,0,
238,23,23,23,23,23,220,221,221,221,221,221,221,221,221,221,221,221,221,221,221,221,221,2147483868,23,23,23,23,23,2147483886,0,0,
238,23,23,23,23,23,222,178,128,129,130,130,132,178,178,178,178,178,178,232,233,234,178,3221225694,23,23,23,23,23,2147483886,0,0,
238,23,23,23,23,23,222,178,144,145,146,147,148,178,178,178,178,178,178,166,167,168,178,3221225694,23,23,23,23,23,2147483886,0,0,
238,23,23,23,23,23,222,178,161,162,163,164,165,178,178,178,178,178,178,229,230,231,178,3221225694,23,23,23,23,23,2147483886,0,0,
238,23,23,23,23,23,1073742044,1073742045,1073742045,1073742045,1073742045,1073742045,1073742045,1073742045,1073742045,1073742045,1073742045,1073742045,1073742045,1073742045,1073742045,1073742045,1073742045,3221225692,23,23,23,23,23,2147483886,0,0,
238,23,23,23,23,23,23,23,23,23,23,23,23,23,23,23,23,23,23,23,23,23,23,23,23,23,23,23,23,2147483886,0,0,
238,23,1073742030,1073742031,1073742031,1073742031,1073742031,1073742031,1073742031,1073742031,1073742031,1073742031,1073742031,1073742031,1073742031,1073742031,1073742031,1073742031,1073742031,1073742031,1073742031,1073742031,3221225678,23,23,23,23,23,23,2147483886,0,0,
238,23,205,43,43,43,43,43,43,43,43,43,43,43,43,43,43,43,43,43,43,43,2147483853,23,23,23,23,23,23,2147483886,0,0,
238,23,206,207,207,207,207,207,207,207,207,207,207,207,207,207,207,207,207,207,207,207,2147483854,23,23,23,23,23,23,2147483886,0,0,
238,23,23,23,23,23,23,23,23,23,23,23,23,23,23,23,23,23,23,23,23,23,23,23,23,23,23,23,23,2147483886,0,0,
238,217,207,207,207,207,207,207,207,207,207,207,207,207,207,207,207,207,207,207,207,207,207,207,207,207,207,207,2147483865,2147483886,0,0,
238,219,23,23,23,23,23,23,23,23,23,23,23,23,23,23,23,23,23,23,23,23,23,23,23,23,23,23,2147483867,2147483886,0,0,
238,1073742041,1073742031,1073742031,1073742031,1073742031,1073742031,1073742031,1073742031,1073742031,1073742031,1073742031,1073742031,1073742031,1073742031,1073742031,1073742031,1073742031,1073742031,1073742031,1073742031,1073742031,1073742031,1073742031,1073742031,1073742031,1073742031,1073742031,3221225689,2147483886,0,0,
1073741851,1073741850,1073741850,1073741850,1073741850,1073741850,1073741850,1073741850,1073741850,1073741850,1073741850,1073741850,1073741850,1073741850,1073741850,1073741850,1073741850,1073741850,1073741850,1073741850,1073741850,1073741850,1073741850,1073741850,1073741850,1073741850,1073741850,1073741850,1073741850,3221225499,0,0,
0,0,0,0,0,0,0,0,0,0,0,0,0,0,0,0,0,0,0,0,0,0,0,0,0,0,0,0,0,0,0,0,
0,0,0,0,0,0,0,0,0,0,0,0,0,0,0,0,0,0,0,0,0,0,0,0,0,0,0,0,0,0,0,0,
0,0,0,0,0,0,0,0,0,0,0,0,0,0,0,0,0,0,0,0,0,0,0,0,0,0,0,0,0,0,0,0,
0,0,0,0,0,0,0,0,0,0,0,0,0,0,0,0,0,0,0,0,0,0,0,0,0,0,0,0,0,0,0,0,
0,0,0,0,0,0,0,0,0,0,0,0,0,0,0,0,0,0,0,0,0,0,0,0,0,0,0,0,0,0,0,0,
0,0,0,0,0,0,0,0,0,0,0,0,0,0,0,0,0,0,0,0,0,0,0,0,0,0,0,0,0,0,0,0,
0,0,0,0,0,0,0,0,0,0,0,0,0,0,0,0,0,0,0,0,0,0,0,0,0,0,0,0,0,0,0,0,
0,0,0,0,0,0,0,0,0,0,0,0,0,0,0,0,0,0,0,0,0,0,0,0,0,0,0,0,0,0,0,0,
0,0,0,0,0,0,0,0,0,0,0,0,0,0,0,0,0,0,0,0,0,0,0,0,0,0,0,0,0,0,0,0,
0,0,0,0,0,0,0,0,0,0,0,0,0,0,0,0,0,0,0,0,0,0,0,0,0,0,0,0,0,0,0,0,
0,0,0,0,0,0,0,0,0,0,0,0,0,0,0,0,0,0,0,0,0,0,0,0,0,0,0,0,0,0,0,0,
0,0,0,0,0,0,0,0,0,0,0,0,0,0,0,0,0,0,0,0,0,0,0,0,0,0,0,0,0,0,0,0
</data>
 </layer>
</map>
